!!!COM:	de Orto, Marbrianus
!!!CDT:	~1460///-1529//
!!!OPR:	Missa La belle se siet
!!!ONM:	2
!!!OTL:	Gloria
!!!AGN:	Mass; Gloria
!!!SCT:	Ort1003b
!!!SCA:	Ort1003b
!!!voices-OPR:	4
!!!voices:	4
**kern	**text	**kern	**text	**kern	**text	**kern	**text
*staff4	*staff4	*staff3	*staff3	*staff2	*staff2	*staff1	*staff1
*Ivox	*	*Ivox	*	*Ivox	*	*Ivox	*
*I"Bassus	*	*I"Tenor	*	*I"Altus	*	*I"Superius	*
*I'B	*	*I'T	*	*I'A	*	*I'S	*
*>[A,B]	*>[A,B]	*>[A,B]	*>[A,B]	*>[A,B]	*>[A,B]	*>[A,B]	*>[A,B]
*>A	*>A	*>A	*>A	*>A	*>A	*>A	*>A
*clefF4	*	*clefGv2	*	*clefGv2	*	*clefG2	*
*k[b-e-]	*	*k[b-]	*	*k[b-]	*	*k[b-]	*
*M3/1	*	*M3/1	*	*M3/1	*	*M3/1	*
*met(O|)	*	*met(O|)	*	*met(O|)	*	*met(O|)	*
!!section: Et in terra pax
!!!OMD: Et in terra pax
=1-	=1-	=1-	=1-	=1-	=1-	=1-	=1-
0.r	.	0F	Et	0c	Et	0.r	.
.	.	1F	in	[1d	in	.	.
=2	=2	=2	=2	=2	=2	=2	=2
0.r	.	0G	ter-	2d\]	.	0.r	.
.	.	.	.	2c\	ter-	.	.
.	.	.	.	2.B-\	.	.	.
.	.	.	.	4A/	.	.	.
.	.	1G	-ra	1B-	-ra	.	.
=3	=3	=3	=3	=3	=3	=3	=3
0AA	Et	1A	pax	0A	pax	0e	Et
.	.	2A/	ho-	.	.	.	.
.	.	1A	-mi-	.	.	.	.
1D	in	.	.	1D	ter-	1f	in
.	.	2A/	-ni-	.	.	.	.
=4	=4	=4	=4	=4	=4	=4	=4
1C	ter-	[0.A	-bus,	1E	.	1e	ter-
0D	-ra	.	.	0F	-ra	0d	-ra
=5	=5	=5	=5	=5	=5	=5	=5
1AA	pax	0A]	.	1E	pax	1e	pax
2AA/	ho-	.	.	2r	.	2e/	ho-
1AA	-mi-	.	.	2c\	ho-	1e	-mi-
.	.	1A	bo-	2c\	-mi-	.	.
2AA/	-ni-	.	.	2c\	-ni-	2e/	-ni-
=6	=6	=6	=6	=6	=6	=6	=6
1AA	-bus,	[0.c	-nae	1A	-bus,	0e	-bus,
0C	bo-	.	.	0G	bo-	.	.
.	.	.	.	.	.	1g	bo-
=7	=7	=7	=7	=7	=7	=7	=7
1F	.	0c]	.	1F	-nae	0a	.
1F	-nae	.	.	1f	vo-	.	.
1G	vo-	1B-	vo-	2e\	-lun-	1g	-nae
.	.	.	.	[2d\	-ta-	.	.
=8	=8	=8	=8	=8	=8	=8	=8
1E-	-lun-	1G	-lun-	2d\]	.	1.g	vo-
.	.	.	.	2c\	.	.	.
0D	-ta-	0A	-ta-	0d	.	.	.
.	.	.	.	.	.	4f#i/	-lun-
.	.	.	.	.	.	4e/	.
.	.	.	.	.	.	1f#i	-ta-
=9	=9	=9	=9	=9	=9	=9	=9
1GG	-tis.	1G	-tis.	1d	-tis.	1g	-tis.
2r	.	2r	.	2r	.	2r	.
2GG/	Lau-	2G/	Lau-	2d\	Lau-	2g/	Lau-
2GG/	-da-	2G/	-da-	2d\	-da-	2g/	-da-
2GG/	-mus	2G/	-mus	2d\	-mus	2g/	-mus
=10	=10	=10	=10	=10	=10	=10	=10
2BB-/	te.	2G/	te.	2B-\	te.	2d/	te.
2D\	Be-	2F/	Be-	2B-\	Be-	2d/	Be-
2C/	-ne-	2G/	-ne-	2c\	-ne-	2e/	-ne-
2BB-/	-di-	2G/	-di-	2d\	-di-	2d/	-di-
2C/	-ci-	2G/	-ci-	2G/	-ci-	2e/	-ci-
2C/	-mus	2A/	-mus	2E/	-mus	2e/	-mus
=11	=11	=11	=11	=11	=11	=11	=11
0BB-	te.	0B-	te.	1F	te.	0d	te.
.	.	.	.	1D	.	.	.
1r	.	1r	.	1r	.	1r	.
=12	=12	=12	=12	=12	=12	=12	=12
1BB-	A-	1B-	A-	1d	A-	1f	A-
1BB-	-do-	1B-	-do-	1f	-do-	1f	-do-
[1E-	-ra-	[1B-	-ra-	[1e-	-ra-	[1g	-ra-
=13	=13	=13	=13	=13	=13	=13	=13
1E-]	.	1B-]	.	1e-]	.	1g]	.
0G	-mus	1.B-	-mus	1.d	-mus	0b-	-mus
.	.	4A/	.	2eni\	.	.	.
.	.	4G/	.	.	.	.	.
=14	=14	=14	=14	=14	=14	=14	=14
1D	te.	1F	te.	2f\	te.	1a	te.
.	.	.	.	4e\	Glo-	.	.
.	.	.	.	4d\	.	.	.
2r	.	1F	Glo-	1.c	-ri-	1a	Glo-
2AA/	Glo-	.	.	.	.	.	.
2C/	-ri-	1A	-ri-	.	.	2g/	-ri-
2D\	-fi-	.	.	2A/	-fi-	2f/	-fi-
=15	=15	=15	=15	=15	=15	=15	=15
1BB-	-ca-	1B-	-fi-	1d	-ca-	1f	-ca-
0C	-mus	1G	-ca-	0c	-mus	1.e	-mus
.	.	1G	-mus	.	.	.	.
.	.	.	.	.	.	4d/	.
.	.	.	.	.	.	4e/	.
=16	=16	=16	=16	=16	=16	=16	=16
1FF	te.	0F	te.	1A	te.	0f	te.
1r	.	.	.	1c	.	.	.
1r	.	1r	.	1r	.	1r	.
=17	=17	=17	=17	=17	=17	=17	=17
1.F	Gra-	1.c	Gra-	1.f	Gra-	1.a	Gra-
2F\	-ti-	2c\	-ti-	2f\	-ti-	2a/	-ti-
1F	-as	1c	-as	1f	-as	1a	-as
=18	=18	=18	=18	=18	=18	=18	=18
0BB-	a-	0d	a-	0f	a-	0b-	a-
1F	-gi-	1c	-gi-	1f	-gi-	1a	-gi-
=19	=19	=19	=19	=19	=19	=19	=19
1F	-mus	1A	-mus	1f	-mus	1a	-mus
0G	ti-	0B-	ti-	0d	ti-	1.g	ti-
.	.	.	.	.	.	4f/	.
.	.	.	.	.	.	4g/	.
=20	=20	=20	=20	=20	=20	=20	=20
0D	-bi,	0A	-bi,	1d	-bi,	1a	-bi,
.	.	.	.	1r	.	1r	.
2D\	prop-	1r	.	1D	prop-	1a	prop-
4C/	.	.	.	.	.	.	.
4BB-/	.	.	.	.	.	.	.
=21	=21	=21	=21	=21	=21	=21	=21
0AA	.	1A	prop-	0E	-ter	1.cc	.
.	.	1A	-ter	.	.	.	.
.	.	.	.	.	.	2b-\	-ter
1AA	-ter	1c	ma-	1E	ma-	1a	ma-
=22	=22	=22	=22	=22	=22	=22	=22
*k[b-]	*	*	*	*	*	*	*
1C	ma-	1c	-gnam	1E	-gnam	1g	-gnam
0GG	-gnam	1.d	glo-	1.G	glo-	1.b-	glo-
.	.	2d\	-ri-	2G/	-ri-	2b-\	-ri-
=23	=23	=23	=23	=23	=23	=23	=23
0.r	.	1c	-am	1A	-am	1.a	-am
.	.	0B-	tu-	1.d	tu-	.	.
.	.	.	.	.	.	4g/	.
.	.	.	.	.	.	4f/	.
.	.	.	.	.	.	1g	tu-
.	.	.	.	4c\	.	.	.
.	.	.	.	4d\	.	.	.
=24	=24	=24	=24	=24	=24	=24	=24
1r	.	0.A	-am,	0e	-am,	0a	-am,
0AA	Do-	.	.	.	.	.	.
.	.	.	.	[1E	Do-	1r	.
=25	=25	=25	=25	=25	=25	=25	=25
0C	.	0.r	.	2E/]	.	0.r	.
.	.	.	.	2F/	.	.	.
.	.	.	.	2G/	.	.	.
.	.	.	.	2A/	-mi-	.	.
1D	-mi-	.	.	1B-	-ne	.	.
=26	=26	=26	=26	=26	=26	=26	=26
1C	-ne	0.r	.	1.A	De-	0.r	.
0BB-	De-	.	.	.	.	.	.
.	.	.	.	4G/	.	.	.
.	.	.	.	4F/	.	.	.
.	.	.	.	1G	-us	.	.
=27	=27	=27	=27	=27	=27	=27	=27
0AA	-us	0c	rex	0A	rex	1.e	rex
.	.	.	.	.	.	1.f	.
1BB-	rex	1d	.	2F/	.	.	.
.	.	.	.	2D/	cae-	.	.
=28	=28	=28	=28	=28	=28	=28	=28
1C	cae-	1c	cae-	1.G	-le-	2e/	cae-
.	.	.	.	.	.	1g	-le-
0GG	-le-	0B-	-le-	.	.	.	.
.	.	.	.	2D/	.	4f/	.
.	.	.	.	.	.	4e/	.
.	.	.	.	1G	-stis,	1d	.
=29	=29	=29	=29	=29	=29	=29	=29
1AA	-stis,	1A	-stis,	2r	.	1e	-stis,
.	.	.	.	1c	De-	.	.
2AA/	De-	2A/	De-	.	.	2e/	De-
1AA	-us	1A	-us	1c	-us	1e	-us
2C/	Pa-	2A/	Pa-	2c\	Pa-	2e/	Pa-
=30	=30	=30	=30	=30	=30	=30	=30
2D\	-ter	2A/	-ter	2A/	-ter	2f/	-ter
2C/	om-	2A/	om-	2e\	om-	2e/	om-
2D\	-ni-	2A/	-ni-	2d\	-ni-	2f/	-ni-
2AA/	-po-	2A/	-po-	2c\	-po-	2e/	-po-
1D	-tens.	1A	-tens.	1d	.	1f	.
=31	=31	=31	=31	=31	=31	=31	=31
2.AA/	Do-	0c	Do-	1c	-tens.	0e	-tens.
4BB-/	.	.	.	.	.	.	.
4C/	.	.	.	1r	.	.	.
4D\	.	.	.	.	.	.	.
4E\	.	.	.	.	.	.	.
4F\	.	.	.	.	.	.	.
1G	-mi-	1B-	-mi-	1r	.	1r	.
=32	=32	=32	=32	=32	=32	=32	=32
1.F	-ne	1A	-ne	0.r	.	0.r	.
.	.	0G	Fi-	.	.	.	.
4E\	.	.	.	.	.	.	.
4D\	.	.	.	.	.	.	.
1E	Fi-	.	.	.	.	.	.
=33	=33	=33	=33	=33	=33	=33	=33
1F	-li	1F	-li	2.A/	Do-	0cc	Do-
.	.	.	.	4B-\	.	.	.
1r	.	1r	.	4c\	.	.	.
.	.	.	.	4d\	.	.	.
.	.	.	.	4e\	.	.	.
.	.	.	.	4f\	.	.	.
1r	.	1r	.	1g	-mi-	1b-	-mi-
=34	=34	=34	=34	=34	=34	=34	=34
0.r	.	0.r	.	1.f	-ne	1a	-ne
.	.	.	.	.	.	0g	Fi-
.	.	.	.	4e\	.	.	.
.	.	.	.	4d\	.	.	.
.	.	.	.	1e	Fi-	.	.
=35	=35	=35	=35	=35	=35	=35	=35
1F	u-	1.c	u-	1f	-li	1f	-li
1F	-ni-	.	.	1r	.	1r	.
.	.	2B-\	-ni-	.	.	.	.
2F\	-ge-	2A/	-ge-	1c	u-	1r	.
2E\	.	2G/	-ni-	.	.	.	.
=36	=36	=36	=36	=36	=36	=36	=36
2.D\	.	1F	-te,	2.d\	.	1.a	u-
4E\	.	.	.	4c\	.	.	.
2F\	.	1r	.	2A/	-ni-	.	.
2C/	.	.	.	1c	-ge-	2g/	-ni-
1D	-ni-	1F	Je-	.	.	2f/	-ge-
.	.	.	.	2Bni\	-ni-	2f/	-ni-
=37	=37	=37	=37	=37	=37	=37	=37
0C	-te,	0G	-su	0c	-te,	0e	-te,
1BB-	Je-	[1B-	.	1r	.	1d	Je-
=38	=38	=38	=38	=38	=38	=38	=38
1GG	-su	1B-]	.	1d	Je-	1g	-su
0D	Chri-	0A	Chri-	1d	-su	1.f#i	Chri-
.	.	.	.	1d	Chri-	.	.
.	.	.	.	.	.	4e/	.
.	.	.	.	.	.	4f#i/	.
=39	=39	=39	=39	=39	=39	=39	=39
0GG	-ste,	0.G	-ste,	1d	-ste,	1g	-ste,
.	.	.	.	2r	.	1r	.
.	.	.	.	2.B-\	Do-	.	.
2G\	Do-	.	.	.	.	1b-	Do-
.	.	.	.	4c\	.	.	.
2G\	-mi-	.	.	4d\	.	.	.
.	.	.	.	4e\	-mi-	.	.
=40	=40	=40	=40	=40	=40	=40	=40
2F\	-ne	1r	.	1f	-ne	2a/	-mi-
2D\	De-	.	.	.	.	2f/	-ne
1E-i	-us	1B-	Do-	2r	.	1g	De-
.	.	.	.	2B-\	De-	.	.
2r	.	2A/	-mi-	2c\	.	1f	-us
2D\	a-	2F/	-ne	2B-\	-us	.	.
=41	=41	=41	=41	=41	=41	=41	=41
2C/	-gnus	1G	De-	2c\	a-	1r	.
2BB-/	De-	.	.	2d\	-gnus	.	.
1AA	-i,	1F	-us	4f\	De-	1cc	a-
.	.	.	.	4e\	.	.	.
.	.	.	.	4d\	.	.	.
.	.	.	.	4c\	.	.	.
2r	.	1r	.	1d	-i,	2b-\	.
2D\	Fi-	.	.	.	.	2a/	.
=42	=42	=42	=42	=42	=42	=42	=42
1E-i	-li-	1B-	a-	2r	.	1g	-gnus
.	.	.	.	2G/	Fi-	.	.
1F	-us	2A/	.	2c\	.	1f	De-
.	.	2F/	-gnus	2f\	.	.	.
1r	.	1G	De-	2.d\	-li-	1b-	-i,
.	.	.	.	4e\	.	.	.
=43	=43	=43	=43	=43	=43	=43	=43
1D	Pa-	1F	-i,	1f	-us	2a/	Fi-
.	.	.	.	.	.	2f/	-li-
2E-i\	.	1r	.	2B-\	Pa-	1g	-us
2C/	.	.	.	2c\	.	.	.
2D\	.	1r	.	2.A/	.	2f/	Pa-
4C/	.	.	.	.	.	[2cc\	.
4BB-/	.	.	.	4G/	.	.	.
=44	=44	=44	=44	=44	=44	=44	=44
4AA/	.	0c	Fi-	4A/	.	4cc\]	.
4GG/	.	.	.	4B-\	.	4b-\	.
2FF/	.	.	.	1c	.	4a/	.
.	.	.	.	.	.	4g/	.
1F	-tris.	.	.	.	.	1a	.
.	.	.	.	2f\	.	.	.
2r	.	1B-	-li-	[1d	.	1g	.
2G\	Pa-	.	.	.	.	.	.
=45	=45	=45	=45	=45	=45	=45	=45
2D\	.	1A	-us	2d\]	.	1.f	.
2F\	.	.	.	1.c	.	.	.
0C	.	0G	Pa-	.	.	.	.
.	.	.	.	.	.	4e/	.
.	.	.	.	.	.	4f/	.
.	.	.	.	[1cl	-tris.	1e	.
=46	=46	=46	=46	=46	=46	=46	=46
0.FFl	-tris.	0.Fl	-tris.	0.c]	.	0.fl	-tris.
!!LO:LB:i:g=z
=47||	=47||	=47||	=47||	=47||	=47||	=47||	=47||
*>B	*>B	*>B	*>B	*>B	*>B	*>B	*>B
*clefF4	*	*clefGv2	*	*clefGv2	*	*clefG2	*
*k[b-e-]	*	*k[b-]	*	*k[b-]	*	*k[b-]	*
*M2/1	*	*M2/1	*	*M2/1	*	*M2/1	*
*met(C|)	*	*met(C|)	*	*met(C|)	*	*met(C|)	*
!!section: Qui tollis
!!!OMD: Qui tollis
0F	Qui	0F	Qui	0c	Qui	0f	Qui
=48	=48	=48	=48	=48	=48	=48	=48
1D	tol-	1F	tol-	1d	tol-	1f	tol-
[1C	-lis	[1c	-lis	[1e-	-lis	[1g	-lis
=49	=49	=49	=49	=49	=49	=49	=49
1C]	.	1c]	.	1e-]	.	1g]	.
1C	pec-	1c	pec-	1e-i	pec-	1g	pec-
=50	=50	=50	=50	=50	=50	=50	=50
1.GG	-ca-	1.B-	-ca-	1.d	-ca-	1.g	-ca-
2GG/	-ta	2B-\	-ta	2d\	-ta	2g/	-ta
=51	=51	=51	=51	=51	=51	=51	=51
1C	mun-	1G	mun-	1e	mun-	1g	mun-
[1FF	-di,	1F	-di,	[1f	-di,	[1a	-di,
=52	=52	=52	=52	=52	=52	=52	=52
1FF]	.	1A	.	1f]	.	1a]	.
[1F	mi-	[1c	mi-	1f	mi-	1a	mi-
=53	=53	=53	=53	=53	=53	=53	=53
1F]	.	2c\]	.	0f	-se-	0cc	-se-
.	.	2B-\	-se-	.	.	.	.
1F	-se-	2A/	-re-	.	.	.	.
.	.	2G/	.	.	.	.	.
=54	=54	=54	=54	=54	=54	=54	=54
1G	-re-	1G	-re	1d	-re-	1b-	-re-
1E-	-re	[1G	no-	1c	-re	1g	-re
=55	=55	=55	=55	=55	=55	=55	=55
0D	no-	1G]	.	0d	no-	0a	no-
.	.	1F#i	.	.	.	.	.
=56	=56	=56	=56	=56	=56	=56	=56
1GG	-bis,	1G	-bis,	1d	-bis,	1g	-bis,
2r	.	2r	.	2r	.	2r	.
2GG/	Qui	2D/	Qui	2d\	Qui	2g/	Qui
=57	=57	=57	=57	=57	=57	=57	=57
2GG/	tol-	2D/	tol-	2d\	tol-	2g/	tol-
1C	-lis	1E	-lis	1c	-lis	1g	-lis
2C/	pec-	2G/	pec-	2c\	pec-	2e/	pec-
=58	=58	=58	=58	=58	=58	=58	=58
2D\	-ca-	2F/	-ca-	2B-\	-ca-	2f/	-ca-
2C/	-ta	2G/	-ta	4c\	-ta	2e/	-ta
.	.	.	.	4B-\	.	.	.
4C/	mun-	1E	mun-	4A/	mun-	1g	mun-
4BB-/	.	.	.	4G/	.	.	.
4AA/	.	.	.	2c\	.	.	.
4GG/	.	.	.	.	.	.	.
=59	=59	=59	=59	=59	=59	=59	=59
*k[b-]	*	*	*	*	*	*	*
0FF	-di,	0F	-di,	0c	-di,	0a	-di,
=60	=60	=60	=60	=60	=60	=60	=60
0GG	su-	1D	su-	1G	su-	0b-	.
.	.	1G	.	1B-	-sci-	.	.
=61	=61	=61	=61	=61	=61	=61	=61
0BB-	-sci-	2F/	.	[0d	-pe	1b-	su-
.	.	1.B-	-sci-	.	.	.	.
.	.	.	.	.	.	2a/	-sci-
.	.	.	.	.	.	2g/	.
=62	=62	=62	=62	=62	=62	=62	=62
0D	-pe	0A	-pe	0d]	.	0f	-pe
=63	=63	=63	=63	=63	=63	=63	=63
1D	de-	1A	de-	1d	de-	1f	de-
1C	-pre-	1c	-pre-	1e	-pre-	1g	-pre-
=64	=64	=64	=64	=64	=64	=64	=64
1.F	-ca-	1.c	-ca-	1.f	-ca-	1.a	-ca-
2G\	-ti-	2B-\	-ti-	2d\	-ti-	2b-\	-ti-
=65	=65	=65	=65	=65	=65	=65	=65
1C	-o-	1c	-o-	2e\	-o-	1g	-o-
.	.	.	.	1c	.	.	.
1D	-nem	1F	-nem	.	.	1f	-nem
.	.	.	.	2Bni\	-nem	.	.
=66	=66	=66	=66	=66	=66	=66	=66
0C	no-	0G	no-	1c	no-	1.e	no-
.	.	.	.	1c	-stram.	.	.
.	.	.	.	.	.	2d/	.
=67	=67	=67	=67	=67	=67	=67	=67
2FF/	.	1F	-stram.	2r	.	1f	-stram.
1F	.	.	.	1c	Qui	.	.
.	.	2r	.	.	.	2r	.
2D\	.	[2A/	Qui	2d\	se-	[2f/	Qui
=68	=68	=68	=68	=68	=68	=68	=68
1D	-stram.	2A/]	.	1d	-des	2f/]	.
.	.	2A/	se-	.	.	2f/	se-
2r	.	2G/	-des	2r	.	1g	-des
2C/	ad	2c\	ad	2e\	ad	.	.
=69	=69	=69	=69	=69	=69	=69	=69
2F\	dex-	1c	dex-	2f\	dex-	2r	.
2E\	-te-	.	.	2g\	-te-	2g/	ad
1F	-ram	2c\	-te-	1c	-ram	1a	dex-
.	.	2c\	-ram	.	.	.	.
=70	=70	=70	=70	=70	=70	=70	=70
1FF	Pa-	1c	Pa-	1A	Pa-	2a/	-te-
.	.	.	.	.	.	2a/	-ram
1FF	-tris,	1F	-tris,	1c	-tris,	1a	Pa-
=71	=71	=71	=71	=71	=71	=71	=71
2r	.	2r	.	2A/	mi-	1a	-tris,
2AA/	mi-	2E/	mi-	2c\	-se-	.	.
2D\	-se-	2F/	.	2d\	-re-	2r	.
2C/	-re-	2E/	-se-	2e\	-re	[2a/	mi-
=72	=72	=72	=72	=72	=72	=72	=72
2D\	-re	2F/	-re-	1d	no-	2a/]	.
2BB-/	no-	2G/	.	.	.	2b-\	-se-
1AA	-bis.	1A	-re	1e	-bis.	1cc	-re-
=73	=73	=73	=73	=73	=73	=73	=73
0r	.	2G/	no-	2r	.	2b-\	-re
.	.	2A/	.	1e	Quo-	1a	no-
.	.	1B-	.	.	.	.	.
.	.	.	.	2d\	-ni-	2g/	.
=74	=74	=74	=74	=74	=74	=74	=74
0r	.	1A	-bis.	2.c\	-am	1a	-bis.
.	.	.	.	4B-\	.	.	.
.	.	1r	.	4A/	.	2r	.
.	.	.	.	4G/	.	.	.
.	.	.	.	2F/	tu	2a/	Quo-
=75	=75	=75	=75	=75	=75	=75	=75
0r	.	0r	.	2.B-\	so-	2g/	-ni-
.	.	.	.	.	.	2f/	-am
.	.	.	.	4A/	.	.	.
.	.	.	.	4G/	.	1b-	tu
.	.	.	.	4F/	.	.	.
.	.	.	.	2G/	.	.	.
=76	=76	=76	=76	=76	=76	=76	=76
0r	.	0r	.	2F/	-lus	2a/	so-
.	.	.	.	1f	sanc-	2f/	-lus
.	.	.	.	.	.	1g	sanc-
.	.	.	.	2e\	.	.	.
=77	=77	=77	=77	=77	=77	=77	=77
2D\	tu	2r	.	1f	-tus,	1f	-tus,
2D\	so-	2B-\	tu	.	.	.	.
2D\	-lus	2A/	so-	1r	.	1r	.
[2F\	Do-	2F/	-lus	.	.	.	.
=78	=78	=78	=78	=78	=78	=78	=78
2F\]	.	2G/	Do-	1r	.	1r	.
2E\	-mi-	2G/	-mi-	.	.	.	.
1F	-nus,	1F	-nus,	2c\	tu	2r	.
.	.	.	.	[2d\	so-	2a/	tu
=79	=79	=79	=79	=79	=79	=79	=79
0r	.	0r	.	2d\]	.	2b-\	so-
.	.	.	.	2d\	-lus	1a	.
.	.	.	.	2c\	Al-	.	.
.	.	.	.	[2f\	-tis-	2f/	.
=80	=80	=80	=80	=80	=80	=80	=80
1C	tu	0r	.	2f\]	.	2g/	-lus
.	.	.	.	2e\	-si-	2g/	Al-
1D	.	.	.	1f	-mus,	1f	-tis-
=81	=81	=81	=81	=81	=81	=81	=81
0E-	so-	0B-	Je-	0e-	Je-	0g	-si-
=82	=82	=82	=82	=82	=82	=82	=82
0BB-	-lus	0d	-su	0f	-su	0b-	-mus,
=83	=83	=83	=83	=83	=83	=83	=83
0F	Al-	[0c	Chri-	0f	Chri-	0a	Je-
=84	=84	=84	=84	=84	=84	=84	=84
0C	-tis-	0c]	.	0e	.	1g	-su
.	.	.	.	.	.	[1g	Chri-
=85	=85	=85	=85	=85	=85	=85	=85
0D	-si-	0A	.	0d	.	2g/]	.
.	.	.	.	.	.	4f#i/	.
.	.	.	.	.	.	4e/	.
.	.	.	.	.	.	1f#i	.
=86	=86	=86	=86	=86	=86	=86	=86
1GG	-mus,	1G	-ste.	1d	-ste.	0g	-ste.
1C	Je-	2r	.	1c	.	.	.
.	.	[2c\	Cum	.	.	.	.
=87	=87	=87	=87	=87	=87	=87	=87
2AA/	.	2c\]	.	0r	.	0cc	Cum
2GG/	.	2B-\	sanc-	.	.	.	.
2FF/	-su	1A	-to	.	.	.	.
[2F\	Chri-	.	.	.	.	.	.
=88	=88	=88	=88	=88	=88	=88	=88
2F\]	.	2G/	Spi-	1r	.	1b-	sanc-
2E\	.	2G/	-ri-	.	.	.	.
1F	-ste.	1F	-tu,	2c\	Cum	1a	-to
.	.	.	.	[2f\	sanc-	.	.
=89	=89	=89	=89	=89	=89	=89	=89
2r	.	0r	.	2f\]	.	1g	Spi-
2C/	Cum	.	.	2e\	-to	.	.
2C/	sanc-	.	.	2e\	Spi-	1g	-ri-
2C/	-to	.	.	2e\	-ri-	.	.
=90	=90	=90	=90	=90	=90	=90	=90
2FF/	Spi-	2r	.	1f	-tu,	1f	-tu,
2F\	-ri-	2c\	in	.	.	.	.
2G\	-tu,	2B-\	glo-	1r	.	2r	.
2F\	in	2A/	-ri-	.	.	2cc\	in
=91	=91	=91	=91	=91	=91	=91	=91
2G\	glo-	2G/	-a	0r	.	2b-\	glo-
2F\	.	1c	De-	.	.	2a/	-ri-
1E	-ri-	.	.	.	.	1g	-a
.	.	2B-\	-i	.	.	.	.
=92	=92	=92	=92	=92	=92	=92	=92
1F	-a	2.A/	Pa-	1f	in	2r	.
.	.	.	.	.	.	2cc\	De-
.	.	4G/	.	.	.	.	.
1r	.	2G/	.	2d\	glo-	2b-\	.
.	.	2F/	-tris.	2f\	-ri-	2a/	.
=93	=93	=93	=93	=93	=93	=93	=93
1C	De-	2.c\	A-	1e	-a	2g/	-i
.	.	.	.	.	.	2.cc\	Pa-
.	.	4B-\	.	.	.	.	.
1FF	-i	4A/	.	2f\	De-	.	.
.	.	4G/	.	.	.	4b-\	.
.	.	[2c\	.	4e\	.	4a/	.
.	.	.	.	4d\	.	4g/	.
=94	=94	=94	=94	=94	=94	=94	=94
2F\	Pa-	4c\]	.	2c\	-i	2f/	-tris.
.	.	4B-\	.	.	.	.	.
2BB-/	.	4A/	.	4d\	Pa-	2b-\	A-
.	.	4G/	.	4B-\	.	.	.
2F\	-tris.	2F/	-men.	4c\	.	2a/	.
.	.	.	.	4d\	.	.	.
[2E-\	A-	2c\	A-	2e-i\	-tris.	[2g/	.
=95	=95	=95	=95	=95	=95	=95	=95
2E-\]	.	4B-\	.	4d\	A-	4g/]	.
.	.	4A/	.	2c\	.	4f/	.
2D\	.	4G/	.	.	.	1f	.
.	.	4F/	.	4B-\	.	.	.
1C	.	1G	.	[1cl	-men.	.	.
.	.	.	.	.	.	2e/	.
=96	=96	=96	=96	=96	=96	=96	=96
0FFl	-men.	0Fl	-men.	0c]	.	0fl	-men.
==	==	==	==	==	==	==	==
*-	*-	*-	*-	*-	*-	*-	*-
!!!RDF**kern: l=long note in original notation
!!!RDF**kern: i=editorial accidental
!!!ENC:	Jesse Rodin 8/10/2013
!!!END:	2013/08/10/
!!!EED:	Jesse Rodin
!!!EEV:	2013/08/11/
!!!ONB:	Translated from MusicXML and edited on 2013/08/11/ by Craig Sapp
!!muse2ps: T^@{OPR}^u^@{ONM}{. }@{OTL}^C^@{COM}^i2I150v85,85,85,130Q16
